app/dist/common/images/lepu-medical-techn.svg

<svg height="18" viewBox="0 0 18 18" width="18" xmlns="http://www.w3.org/2000/svg"><path d="m0 0h18v18h-18z" fill="#f0f3fa"/><path d="m6 14v-2h1.67v1.67c1.06-.14 1.33-1.17 1.33-1.67v2zm8-5.97c0 2-1.5 3.65-3.45 3.97h-1.38a4.2 4.2 0 0 1 -.17-.03v-2.97h-3v-2.44c.6-1.5 2.1-2.56 3.86-2.56 2.29 0 4.14 1.8 4.14 4.03zm-3 .97a2 2 0 1 0 -2-2v2z" fill="#2378ba"/></svg>

<!-- by TradingView --><svg width="18" height="18" viewBox="0 0 18 18" xmlns="http://www.w3.org/2000/svg"><path fill="#F0F3FA" d="M0 0h18v18H0z"/><path d="M6 14v-2h1.67v1.67C8.73 13.53 9 12.5 9 12v2H6ZM14 8.03c0 2-1.5 3.65-3.45 3.97H9.17a4.2 4.2 0 0 1-.17-.03V9H6V6.56C6.6 5.06 8.1 4 9.86 4 12.15 4 14 5.8 14 8.03ZM11 9a2 2 0 1 0-2-2v2h2Z" fill="#2378BA"/></svg>
